app/images/componentsDetails/arrow.svg

<svg width="24" height="21" viewBox="0 0 24 21" fill="none" xmlns="http://www.w3.org/2000/svg">
<path d="M24 10.1765C24 9.62418 23.5523 9.17647 23 9.17647H5.79765L11.878 2.65449C12.2454 2.2605 12.2346 1.64636 11.8537 1.26547L11.2953 0.707107C10.9048 0.316583 10.2717 0.316582 9.88113 0.707107L0.707107 9.88113C0.316582 10.2717 0.316583 10.9048 0.707107 11.2953L9.88113 20.4694C10.2717 20.8599 10.9048 20.8599 11.2953 20.4694L11.8537 19.911C12.2346 19.5301 12.2454 18.916 11.878 18.522L5.79765 12H23C23.5523 12 24 11.5523 24 11V10.1765Z" fill="#777777"/>
</svg>

<svg width="24" height="21" fill="none" xmlns="http://www.w3.org/2000/svg"><path d="M24 10.177a1 1 0 00-1-1H5.798l6.08-6.523a1 1 0 00-.024-1.389l-.559-.558a1 1 0 00-1.414 0L.707 9.881a1 1 0 000 1.414l9.174 9.174a1 1 0 001.414 0l.559-.558a1 1 0 00.024-1.389L5.798 12H23a1 1 0 001-1v-.823z" fill="#777"/></svg>
